packages/bezier-icons/icons/pip.svg

<svg width="24" height="24" viewBox="0 0 24 24" fill="none" xmlns="http://www.w3.org/2000/svg">
<path fill-rule="evenodd" clip-rule="evenodd" d="M12 21H13.6428H13.6429C14.7266 21 15.6008 21 16.3086 20.9422C17.0375 20.8826 17.6777 20.7568 18.27 20.455C19.2108 19.9757 19.9757 19.2108 20.455 18.27C20.7568 17.6777 20.8826 17.0375 20.9422 16.3086C21 15.6007 21 14.7266 21 13.6428V10.3572V10.3571C21 9.27335 21 8.39923 20.9422 7.69138C20.8826 6.96253 20.7568 6.32234 20.455 5.73005C19.9757 4.78924 19.2108 4.02434 18.27 3.54497C17.6777 3.24318 17.0375 3.11737 16.3086 3.05782C15.6008 2.99998 14.7267 2.99999 13.643 3H13.6428H10.3572H10.3571C9.27333 2.99999 8.39922 2.99998 7.69138 3.05782C6.96253 3.11737 6.32234 3.24318 5.73005 3.54497C4.78924 4.02433 4.02433 4.78924 3.54497 5.73005C3.24318 6.32234 3.11737 6.96252 3.05782 7.69137C2.99998 8.39922 2.99999 9.27333 3 10.3571V10.3572V12H5L5 10.4C5 9.26339 5.00078 8.47108 5.05118 7.85424C5.10062 7.24907 5.19279 6.90138 5.32698 6.63803C5.6146 6.07354 6.07354 5.6146 6.63803 5.32698C6.90138 5.19279 7.24907 5.10062 7.85424 5.05118C8.47108 5.00078 9.26339 5 10.4 5L13.6 5C14.7366 5 15.5289 5.00078 16.1458 5.05118C16.7509 5.10062 17.0986 5.19279 17.362 5.32698C17.9265 5.6146 18.3854 6.07354 18.673 6.63803C18.8072 6.90138 18.8994 7.24907 18.9488 7.85424C18.9992 8.47108 19 9.26339 19 10.4L19 13.6C19 14.7366 18.9992 15.5289 18.9488 16.1458C18.8994 16.7509 18.8072 17.0986 18.673 17.362C18.3854 17.9265 17.9265 18.3854 17.362 18.673C17.0986 18.8072 16.7509 18.8994 16.1458 18.9488C15.5289 18.9992 14.7366 19 13.6 19H12V21ZM5 15H9V19H5V15ZM3 15C3 13.8954 3.89543 13 5 13H9C10.1046 13 11 13.8954 11 15V19C11 20.1046 10.1046 21 9 21H5C3.89543 21 3 20.1046 3 19V15Z" fill="#313234"/>
</svg>

<svg xmlns="http://www.w3.org/2000/svg" width="24" height="24" fill="none" viewBox="0 0 24 24"><path fill="#313234" fill-rule="evenodd" d="M12 21h1.643c1.084 0 1.958 0 2.666-.058.729-.06 1.369-.185 1.961-.487a5 5 0 0 0 2.185-2.185c.302-.592.428-1.232.487-1.961C21 15.6 21 14.727 21 13.643v-3.286c0-1.084 0-1.958-.058-2.666-.06-.728-.185-1.369-.487-1.96a5 5 0 0 0-2.185-2.186c-.592-.302-1.232-.428-1.961-.487C15.6 3 14.727 3 13.643 3h-3.286C9.273 3 8.4 3 7.691 3.058c-.728.06-1.369.185-1.96.487A5 5 0 0 0 3.544 5.73c-.302.592-.428 1.233-.487 1.961C3 8.4 3 9.273 3 10.357V12h2v-1.6c0-1.137 0-1.929.051-2.546.05-.605.142-.953.276-1.216a3 3 0 0 1 1.311-1.311c.263-.134.611-.226 1.216-.276C8.471 5.001 9.264 5 10.4 5h3.2c1.137 0 1.929 0 2.546.051.605.05.953.142 1.216.276a3 3 0 0 1 1.311 1.311c.134.263.226.611.276 1.216.05.617.051 1.41.051 2.546v3.2c0 1.137 0 1.929-.051 2.546-.05.605-.142.953-.276 1.216a3 3 0 0 1-1.311 1.311c-.263.134-.611.226-1.216.276-.617.05-1.41.051-2.546.051H12zm-7-6h4v4H5zm-2 0a2 2 0 0 1 2-2h4a2 2 0 0 1 2 2v4a2 2 0 0 1-2 2H5a2 2 0 0 1-2-2z" clip-rule="evenodd"/></svg>
